X: 1
T: Aunt Mary's Jig
O: Canada
Z: John Chambers <jc:trillian.mit.edu>
R: jig
M: 6/8
L: 1/8
K: D
|: de | "D"f2f f>ga | d2d dcB | A>BA "B7/D#"AGF | "Em"E3- E3 || "A7"e2e efg | e2d c2B |
|1 A2A A>BA | "D"F6 :|2 A2A ABc | "D"d3- d |: FG | "D"A>FA faf | e2d d2B | A>FA "B7/D#"BcB |
| "Em"A2G G3 || "(A7)"G>FG efe | "A7"d2c c2B |1 A2A A>BA | "D"F6 :|2 "A7"A2A ABc | "D"d3- d |]

%%sep 1 1 500

